X:4322
L:1/8
M:4/4
K:C
 BEA |[M:2/2][K:D]SOSOO .!fermata!PMTuCO(MA/G/F/E/)"^Segno" |: D2 (FA) DAFA | A,2 (CE) A,ECE | 
 D2 (FA) DAFA |1 (3(Bcd) (3(cde) dBAF :|2 (3(Bcd) (3(cde) dfec || d2 (fd) gefd | 
 (3(BBB) (ed) cABc | (3(ddd) (fd) gefd | (3(Bcd) (3(cde) dfec | d2 (fd) gefd | (3(BBB) (ed) cABc | 
 defg abag | fdec dBA"^Dal Segno" F |]

